X:1
M:6/8
K:G
B/2c/2|d3 Bcd|e2d ced|cBA G3|A2G G2G|
G2E A2B|d2B A2G|E2F G3|A2G EFG|ded c2B|\
dBA A2:|
A|B2d edd|g2g g2g|e2g e2d|f2d d2f|afd e3|
d2c A2c|B2A A2B|c3 c3|B2B cBA|A2G F2D|
D2F E2D|F2A BcB|d3 d2B|c2A Bcd|e2d c3|
d2d e2f|e2d A3|G2B d2d|d3 -d2e|d2B A2B|
d2B B2B|d2B ABc|e2e d3|ede e2e|f2d e2c|B3 A2B|
c2e e2f|g3 -e2e|d3 d2c|d3 e2d|d3 e3|d3 dcd|
e2g f2a|e2e c2B|A2B G2B|A3 -A2:|